!!!!SEGMENT: pl-cz--i-2_brykner-jerzy--vos-saeculorum.krn
!!!cenid: 17xx:842
!!!COM: Brykner, Jerzy
!!!COM-rismID: pe30025739
!!!CDT: 1705-1760
!!!CNT: Polish
!!!OTL: Vos saeculorum
!!!PDT:
!!!AGN:
!!!SMS-siglum: PL-CZ
!!!SMS-shelfmark: I-2
!!!SMS-shelfwork: W
!!!SMS-variant:
!!!SMS-altvar:
!!!NIFC-rismSourceID: 300033584
!!!NIFC-rismChildID: 300033584
!!!NIFC-islandoraID: pl-cz:31446
!!!URL-pdf-islandora: https://repozytorium.nifc.pl/islandora/object/pl-cz%3A31446/datastream/PDF/view
!!!URL-scan:
!!!ONB-nifc:
!!!AIN: 1 alto 1 empty 1 organ 1 soprn 1 tenor
!!!key:
**kern	**fba	**kern	**text	**text	**kern	**text	**text	**kern	**text	**text	**kern	**text	**text
*part5	*	*part4	*part4	*part4	*part3	*part3	*part3	*part2	*part2	*part2	*part1	*part1	*part1
*staff5	*	*staff4	*staff4	*staff4	*staff3	*staff3	*staff3	*staff2	*staff2	*staff2	*staff1	*staff1	*staff1
*Iorgan	*	*Iempty	*	*	*Itenor	*	*	*Ialto	*	*	*Isoprn	*	*
*I"Organo	*	*I"Baſso	*	*	*I"Tenore	*	*	*I"Alto	*	*	*I"Soprano	*	*
*I'org	*	*I'B	*	*	*I'T	*	*	*I'A	*	*	*I'S	*	*
*clefF4	*	*clefF4	*	*	*clefC4	*	*	*clefC3	*	*	*clefC1	*	*
*k[]	*	*k[]	*	*	*k[]	*	*	*k[]	*	*	*k[]	*	*
*a:	*	*a:	*	*	*a:	*	*	*a:	*	*	*a:	*	*
*M2/2	*	*M2/2	*	*	*M2/2	*	*	*M2/2	*	*	*M2/2	*	*
*met(c|)	*	*met(c|)	*	*	*met(c|)	*	*	*met(c|)	*	*	*met(c|)	*	*
=1	=1	=1	=1	=1	=1	=1	=1	=1	=1	=1	=1	=1	=1
!LO:TX:a:B:t=Allabreve	!	!LO:TX:a:B:t=Allabreve	!	!	!LO:TX:a:B:t=Allabreve	!	!	!LO:TX:a:B:t=Allabreve	!	!	!LO:TX:a:B:t=Allabreve	!	!
1A\	n	1A\	Vos	Pa-	1e\	Vos	Pa-	1a\	Vos	Pa-	1cc\	Vos	Pa-
=2	=2	=2	=2	=2	=2	=2	=2	=2	=2	=2	=2	=2	=2
*2\right	*	*2\right	*	*	*2\right	*	*	*2\right	*	*	*2\right	*	*
!	!	!	!	!	!	!	!	!LO:SIC:o=:v:all\right&colon;global	!	!	!	!	!
2.F\	6	2.F\	sae-	-tri	2.d\	sae-	-tri	2.a\	Sae-	-tri,	2.dd\	sae-	-tri
4E\	.	4E\	-cu-	si-	4c#X\	-cu-	si-	4g\	-cu-	si-	4ee\	-cu-	si-
=3	=3	=3	=3	=3	=3	=3	=3	=3	=3	=3	=3	=3	=3
2D\	.	2D/	-lo-	-mul-	2d\	-lo-	-mul-	2f\	-lo-	-mul-	2ff\	-lo-	-mul-
4C/	.	4C/	-rum	-q(ue)	(4A\	-rum	-q(ue)	2a\	-rum	-que	(4ee\	-rum	-que
4BB/	.	4BB/	.	.	4B\)	.	.	.	.	.	4dd\)	.	.
=4	=4	=4	=4	=4	=4	=4	=4	=4	=4	=4	=4	=4	=4
4AA/	.	4AA/	ju-	fi-	(4c\	ju-	fi-	2.a\	Ju-	Fi-	2.cc\	ju-	Fi-
4BB/	.	4BB/	.	.	4d\)	.	.	.	.	.	.	.	.
4C/	.	4C/	-di-	-li-	(4e\	-di-	-li-	.	.	.	.	.	.
4D/	.	4D/	.	.	4f\)	.	.	4asS\	-di-	-li-	4cc\	-di-	-li-
=5	=5	=5	=5	=5	=5	=5	=5	=5	=5	=5	=5	=5	=5
2E\	4	2E\	-ces	-o	2e\	-ces	-o	2g#X\	-ces,	-o,	2b\	-ces	-o
2A\	3	2A\	(et)	ti-	2e\	(et)	ti-	2a\	et	Ti-	2cc\	(et)	ti-
.	2	.	.	.	.	.	.	.	.	.	.	.	.
=6	=6	=6	=6	=6	=6	=6	=6	=6	=6	=6	=6	=6	=6
2A\	_	2A\	ve-	-bi-	2d\	ve-	-bi-	2a\	ve-	-bi-	2b\	ve-	-bi-
2G\	6	2G\	-ra	-q(ue)	2e\	-ra	-q(ue)	2b\	-ra	-que	2ee\	-ra	-que
!LO:LB:g=original	!	!	!	!	!	!	!	!	!	!	!	!	!
=7	=7	=7	=7	=7	=7	=7	=7	=7	=7	=7	=7	=7	=7
!	!	!	!	!	!	!	!	!	!	!	!LO:SIC:o:s=:v:brak taktu nr 7	!	!
2A\	6 5	2A\	mun-	san-	1f\	mun-	ſan-	2cc\	m(un)-	San-	1r	.	.
*	*	*	*	*	*	*	*	*custos:g	*	*	*	*	*
2B\	6 5	2B\	-di	-cte	.	.	.	2g\	-di	-cte	.	.	.
!	!	!	!	!	!	!	!	!LO:LB:g=original	!	!	!	!	!
=8	=8	=8	=8	=8	=8	=8	=8	=8	=8	=8	=8	=8	=8
2.c\	9	2.c\	lu-	spi-	1e\	-di	-cte	(1g\	lu-	Spi-	2ee\	mun-	san-
!	!	!	!	!	!	!	!	!	!	!	!LO:LB:g=original	!	!
.	8	.	.	.	.	.	.	.	.	.	2cc\	-di	-cte
4B\	.	4B\	.	.	.	.	.	.	.	.	.	.	.
=9	=9	=9	=9	=9	=9	=9	=9	=9	=9	=9	=9	=9	=9
2A\	.	2A\	.	.	2e\	lu-	ſpi-	1a\)	.	.	[1cc\	lu-	spi-
2F\	6 5	2F\	.	.	2d\	.	.	.	.	.	.	.	.
=10	=10	=10	=10	=10	=10	=10	=10	=10	=10	=10	=10	=10	=10
1G\	4	2.G\	.	.	2.d\	.	.	2.g\	.	.	2.cc\]	.	-ri-
.	3	4G\	-mi-	-ri-	4d\	-mi-	-ri-	4g\	-mi-	-ri-	4b\	-mi-	.
!	!	!LO:LB:g=original	!	!	!LO:LB:g=original	!	!	!	!	!	!	!	!
=11	=11	=11	=11	=11	=11	=11	=11	=11	=11	=11	=11	=11	=11
2C/	.	2C/	-na	-tus	2e\	-na	-tus	2g\	-na,	-tus,	2cc\	-na	-tus
*clefC1	*	*	*	*	*	*	*	*	*	*	*	*	*
2g/	.	2r	.	.	2r	.	.	2g\	Vo-	si-	2r	.	.
=12	=12	=12	=12	=12	=12	=12	=12	=12	=12	=12	=12	=12	=12
*^	*	*	*	*	*	*	*	*	*	*	*	*	*
!	!	!	!	!	!	!LO:N:vis=0	!	!	!	!	!	!	!	!
2e/	2reyy	.	1r	.	.	1r	.	.	2e\	-tis	-cut	2r	.	.
2c/ 2cc/	2c\	.	.	.	.	.	.	.	2c/	pre-	fu-	2cc\	vo-	si-
=13	=13	=13	=13	=13	=13	=13	=13	=13	=13	=13	=13	=13	=13	=13
2b/	2d\	.	2r	.	.	2r	.	.	1d\	-ca-	-it	2b\	-tis	-cut
*clefF4	*	*	*	*	*	*	*	*	*	*	*	*	*	*
2G\	2ryy	.	2G\	vo-	si-	2c\	vo-	si-	.	.	.	2g\	pre-	fu-
*v	*v	*	*	*	*	*	*	*	*	*	*	*	*	*
!LO:LB:g=original	!	!	!	!	!	!	!	!	!	!	!	!	!
=14	=14	=14	=14	=14	=14	=14	=14	=14	=14	=14	=14	=14	=14
2E\	6	2E\	-tis	-cut	2B\	-tis	-cut	[<1g\	.	sit	(4cc\	-ca-	-it
.	.	.	.	.	.	.	.	.	.	.	4dd\)	.	.
2C\	.	2C/	pre-	fu-	2G/	pre-	fu-	.	.	.	2ee\	-mur	sit
=15	=15	=15	=15	=15	=15	=15	=15	=15	=15	=15	=15	=15	=15
!	!	!	!	!	!LO:SIC:o=:v: brak taktu nr 15	!	!	!	!	!	!	!	!
2GG/	.	2GG/	-ca-	-it	1r	.	.	1g\_<	.	.	1dd\	cor-	ju-
4G\	.	4G\	-mur	sit	.	.	.	.	.	.	.	.	.
4F\	.	4F\	.	.	.	.	.	.	.	.	.	.	.
=16	=16	=16	=16	=16	=16	=16	=16	=16	=16	=16	=16	=16	=16
2E\	6	2E\	cor-	ju-	2.c\	-ca-	-it	2g\]	.	.	[<1ee\	.	.
*	*	*	*	*	*	*	*	*custos:a	*	*	*	*	*
2C/	.	2C/	.	.	.	.	.	2a\	-mur	.	.	.	.
.	.	.	.	.	4B\	-mur	sit	.	.	.	.	.	.
!	!	!	!	!	!	!	!	!LO:LB:g=original	!	!	!	!	!
=17	=17	=17	=17	=17	=17	=17	=17	=17	=17	=17	=17	=17	=17
1F\	7	2.F\	.	.	2.A\	cor-	ju-	2.a\	cor-	ju-	2.ee\]	.	.
!	!	!	!	!	!LO:N:vis=8	!	!	!	!	!	!	!	!
.	6	4F\	-di-	-gi-	4A\	-di-	-gi-	4a\	-di-	-gi-	4dd\	-di-	-gi-
=18	=18	=18	=18	=18	=18	=18	=18	=18	=18	=18	=18	=18	=18
2E\	#	2E\	-um	-ter	2B\	-um	-ter	2g#X\	-um	-ter	2ee\	-um	-ter
2A\	.	2A\	au-	sae-	2r	.	.	2a\	au-	ſae-	2cc\	au-	sae-
=19	=19	=19	=19	=19	=19	=19	=19	=19	=19	=19	=19	=19	=19
2.B-X\	.	2.B-X\	-di-	-clum	2r	.	.	[<1f\	-di-	-clum	2.dd\	-di-	-clum-
.	.	.	.	.	4d\	au-	sae-	.	.	.	.	.	.
*	*	*	*	*	*	*	*	*	*	*	*custos:dd	*	*
4A\	.	4A\	-te	per	4c\	.	.	.	.	.	4dd\	-te	per
!	!	!	!	!	!	!	!	!	!	!	!LO:LB:g=original	!	!
=20	=20	=20	=20	=20	=20	=20	=20	=20	=20	=20	=20	=20	=20
2G#X\	.	2G#X\	vo-	om-	2B\	-di-	clum	2f\]	.	.	2dd\	vo-	om-
2A\	.	2A\	-ces	-ne	2A\	-te	per	2e\	-te	per	2cc\	-ces	-ne
!	!LO:LB:g=original	!	!	!	!	!	!	!	!	!	!	!	!
=21	=21	=21	=21	=21	=21	=21	=21	=21	=21	=21	=21	=21	=21
2E\	#	2E\	sup-	glo-	2G#X/	vo-	om-	2e\	vo-	om-	(2b\	sup-	glo-
2D#X\	7 3	2D#X\	.	.	2A/	-ces	-ne	2f#X\	-ces	-ne	2cc\)	.	.
!	!	!LO:LB:g=original	!	!	!	!	!	!	!	!	!	!	!
=22	=22	=22	=22	=22	=22	=22	=22	=22	=22	=22	=22	=22	=22
1E\	4	2.E\	.	.	2.A/	sup-	glo-	2.e\	ſup-	glo-	2.b\	.	.
.	3	4E\	-pli-	-ri-	4G#X/	-pli-	-ri-	4e\	-pli-	-ri-	4b\	-pli-	-ri-
!	!	!	!	!	!LO:LB:g=original	!	!	!	!	!	!	!	!
=23	=23	=23	=23	=23	=23	=23	=23	=23	=23	=23	=23	=23	=23
!	!	!	!	!	!	!	!	!LO:TX:b:t=In 1.mis Vesp&colon;. V. In omnem terram exivit Son(us) Eorum.\nR. Et in fines orbis terra verba Eor(um).	!	!	!LO:TX:b:t=In primis Vesperis. V. in omnem terram exivit sonus eorum.\nR. (et) in fines orbis terra verba eorum.	!	!
!LO:SIC:o=:v:zgodnie z RISM "Partia org na f. 1v ma fragment innej kompozycji, gdyż powstała na papierze z pociętego utworu"	!	!	!	!	!	!	!	!LO:TX:b:t=In 2dis Vesp&colon; R. Et facta Ejus intellexerunt.	!	!	!LO:TX:b:t=In secundis vesperis V. Annuntiaverunt opera Dei\nr. (et) facta ejus intellexerunt.	!	!
!LO:N:vis=0	!	!LO:N:vis=0	!	!	!LO:N:vis=0	!	!	!LO:N:vis=0	!	!	!LO:N:vis=0	!	!
1AA/	.	1AA/	-cum	-a	1A\	-cum	-a	1e\	-cum.	-a.	1a\	-cum	-a.
==	==	==	==	==	==	==	==	==	==	==	==	==	==
*-	*-	*-	*-	*-	*-	*-	*-	*-	*-	*-	*-	*-	*-
!!!system-decoration: [(s1,s2,s3,s4)]s5
!!!RDF**kern: > = above
!!!RDF**kern: < = below
!!!ENC: Andrzej Kubiczek
!!!END: 2020-06-20
!!!EED: Leszek Kubiak
!!!EEV: 2020-09-24
!!!YEC: Copyright 2022 Narodowy Instytut Fryderyka Chopina (https://polishscores.org)
!!!YEM: License CC-BY-4.0 (https://creativecommons.org/licenses/by/4.0)
